**kern	**kern	**dynam
*part1	*part1	*part1
*staff2	*staff1	*
*I"Piano	*	*
*clefF4	*clefG2	*
*k[b-e-a-d-]	*k[b-e-a-d-]	*
*M3/8	*M3/8	*
=1	=1	=1
*^	*	*
!	!	!LO:TX:a:B:t=Allegretto.    .= 60.	!
8r	4.AA-	(4e-^ 4a- 4cc	mf
(8A-L	.	.	.
8E-J)	.	8a-) 8cc 8ee-	.
=	=	=	=
8r	4.AA-	(4e-^ 4a- 4cc	.
(8A-L	.	.	.
8E-J)	.	8a-) 8cc 8ee-	.
=	=	=	=
8r	4.AA-	((4e- 4a- 4cc	.
(8A-L	.	.	.
8E-J)	.	8g) 8b- 8ee-	.
=	=	=	=
*	*	*^	*
8r	4.AA-	8.fL 8.dd-	4.g	.
(8B-L	.	.	.	.
.	.	16e-K 16cc	.	.
8E-J)	.	8d-J) 8b-	.	.
*	*	*v	*v	*
=	=	=	=
8r	4.AA-	((4e- 4a- 4cc	.
(8A-L	.	.	.
8E-J)	.	8g) 8b- 8ee-	.
=	=	=	=
*	*	*^	*
8r	4.AA-	8.fL 8.dd-	4.g	.
(8B-L	.	.	.	.
.	.	16e-K 16cc	.	.
8E-J)	.	8d-J) 8b-	.	.
*	*	*v	*v	*
=	=	=	=
8r	4.AA-	(8e- 8a- 8cc	.
(8A-L	.	4c 4e- 4a-	.
8E-J)	.	.	.
*v	*v	*	*
=	=	=
*-	*-	*-
!!!system-decoration: {(s1,s2)}
